X: 12222
T: Fair Maid Of Whickham, The
R: jig
M: 6/8
K: Gmajor
|:DGG GAB|cgc ~B3|cBc Adc|BGG AGE|
DGG GAB|cgc ~B3|cBc Adc|1 BGG G2E:|2 BGG G2B||
|:cec BdB|ABA AGE|DGG GAB|cgc ~B3|
cac BgB|AGA def|gfg Adc|1 BGG G2B:|2 BGG G2E||

